X: 1
T: da Fitful Head
C: Tom Anderson
R: reel
Z: 2008 John Chambers <jc@trillian.mit.edu>
M: C|
L: 1/8
K: A
AB \
| cedB cedB | c2A2 A2fg | agag f2ba | g2e2 e2fg |
y4 \
| aefa e2ce | dBed c2BA | Bdfa ecdB | c2A2 A2 :|
|: GA \
| BGEd c2Ac | dBGf e2ce | fefg afba | g2e2 e2fg |
y4 \
| aefa e2ce | dBed c2BA | Bdfa ecdB | c2A2 A2 :|
